public/items/Spiced-Honey.svg

<svg xmlns="http://www.w3.org/2000/svg" viewBox="0 0 216 216"><defs><style>.cls-1{fill:#d8b982;fill-rule:evenodd;}.cls-2{font-size:8.32px;font-family:ArialMT, Arial;}.cls-2,.cls-7,.cls-8,.cls-9{fill:#231f20;}.cls-3,.cls-4,.cls-5,.cls-6{fill:none;stroke:#231f20;}.cls-3,.cls-5,.cls-6{stroke-miterlimit:2.61;}.cls-4{stroke-linecap:round;stroke-linejoin:round;stroke-width:2px;stroke-dasharray:2.4 4.8;}.cls-5{stroke-width:3.06px;}.cls-6{stroke-width:0.57px;}.cls-7{font-size:9.63px;}.cls-7,.cls-8{font-family:Montserrat-Regular, Montserrat;}.cls-8{font-size:5.96px;}.cls-9{font-size:13.56px;font-family:Montserrat-SemiBold, Montserrat;font-weight:600;}</style></defs><g id="Layer_2" data-name="Layer 2"><g id="Layer_1-2" data-name="Layer 1"><g id="SPICED_HONEY" data-name="SPICED HONEY"><path class="cls-1" d="M108,0A108,108,0,1,1,0,108,108,108,0,0,1,108,0"/><text class="cls-2" transform="translate(168.12 35.15)">®</text><path class="cls-3" d="M112.76,27.54l-.15,2.58M117.44,28l-.3,2.56m5-1.87-.45,2.55m5-1.58-.6,2.52m5.14-1.29-.75,2.48m5.2-1-.89,2.44m5.25-.68-1,2.37m5.28-.37-1.17,2.31m5.29-.06-1.29,2.24m5.28.24L151,43m5.26.55-1.55,2.08m5.23.86-1.67,2m5.16,1.16-1.78,1.88M166.72,53l-1.89,1.77m5.08,1.57-2,1.66m4.9,2-2.08,1.54M175.45,64l-2.17,1.42m4.63,2.6-2.24,1.29m4.45,2.85-2.31,1.16m4.28,3.11-2.38,1m4.1,3.36-2.44.88m3.9,3.59-2.49.73m3.68,3.81-2.52.59m3.45,4-2.55.44M188.05,99l-2.58.3m3,4.39-2.58.14m2.69,4.56H186m2.43,4.71L185.8,113m2.14,4.84-2.57-.32m1.86,5-2.54-.46m1.57,5.06-2.52-.61m1.27,5.14-2.47-.75m1,5.2-2.43-.89m.66,5.25-2.37-1m.36,5.28-2.31-1.17m.05,5.29-2.24-1.3m-.25,5.3-2.15-1.43m-.57,5.27L170.19,155m-.68,5.13-2-1.67M166,163.84l-1.87-1.79m-1.48,5.08-1.77-1.89m-1.77,5-1.65-2m-2.08,4.85L153.82,171m-2.34,4.74-1.41-2.17m-2.62,4.6-1.27-2.25m-2.88,4.44L142.15,178M139,182.33,138,180M134.64,184l-.87-2.44m-3.61,3.87-.73-2.49m-3.82,3.66-.58-2.52m-3.57,3.38-.43-2.55m-4.23,3.2-.28-2.58m-4.41,2.95-.13-2.58m-4.57,2.68,0-2.59m-4.72,2.42.17-2.59M98,188l.32-2.57m-5,1.85.47-2.55m-5.06,1.56.61-2.52M84.27,185l.76-2.47m-5.21.95.9-2.42m-5.26.65,1.05-2.37m-5.29.34,1.18-2.3m-5.3,0,1.32-2.23m-5.29-.27,1.44-2.15m-5.26-.61,1.56-2.06m-5.22-.89,1.68-2m-5.16-1.19,1.8-1.87m-5.48-1.66,1.9-1.76m-5-1.79,2-1.65m-4.5-1.89,2.1-1.52m-4.75-2.36,2.18-1.4m-4.61-2.62,2.26-1.27m-4.45-2.88L38,142.26m-4.26-3.15,2.38-1M32,134.72l2.44-.85M30.28,130l2.49-.71m-3.35-3.62,2.52-.57m-3.42-4,2.55-.42m-3.18-4.24,2.58-.27m-2.93-4.42,2.58-.12M27.46,107l2.59,0m-2.4-4.73,2.58.18m-2.11-4.86,2.56.34m-1.82-5,2.54.48m-1.53-5.07,2.51.63m-1.24-5.16,2.47.78m-.93-5.22,2.42.92m-.63-5.26,2.36,1m-.38-5.39L38.75,72m0-5.2L41,68.09m.29-5.29,2.14,1.45M44.06,59l2,1.57M47,55.34,49,57m1.22-5.16,1.86,1.8m1.51-5.08,1.75,1.91m1.81-5,1.63,2m2.1-4.87,1.51,2.1M64.75,40l1.39,2.19m2.64-4.6L70,39.87M73,35.43l1.13,2.33m3.16-4.25,1,2.39m3.41-4.06.85,2.45m3.64-3.86.7,2.49m3.86-3.64.55,2.53m4.06-3.42.41,2.55M100,27.78l.26,2.58m4.43-2.9.11,2.58m3.29-2.65V30"/><circle class="cls-4" cx="108" cy="108" r="84.7" transform="translate(-10.92 203.84) rotate(-83.87)"/><circle class="cls-5" cx="108" cy="108" r="90.56" transform="translate(-44.74 108) rotate(-45)"/><circle class="cls-6" cx="108" cy="108" r="74.52" transform="translate(-4.4 4.58) rotate(-2.38)"/><text class="cls-7" transform="translate(98.37 71.72)">THE</text><text class="cls-7" transform="translate(67.02 81.94)">C</text><text class="cls-7" transform="translate(73.8 81.94)">ONSERV</text><text class="cls-7" transform="translate(115.42 81.94)">A</text><text class="cls-7" transform="translate(121.99 81.94)">T</text><text class="cls-7" transform="translate(127.42 81.94)">OR</text><text class="cls-7" transform="translate(142.37 81.94)">Y</text><text class="cls-8" transform="translate(86.78 93.12)">A</text><text class="cls-8" transform="translate(90.84 93.12)">T IRO LA</text><text class="cls-8" transform="translate(116.22 93.12)">GOS</text><text class="cls-9" transform="translate(81.71 132.32)">SP</text><text class="cls-9" transform="translate(99.95 132.32)">ICED</text><text class="cls-9" transform="translate(81.64 145.31)">HONE</text><text class="cls-9" transform="translate(124 145.31)">Y</text></g></g></g></svg>

<?xml version="1.0" encoding="utf-8"?>
<!-- Generator: Adobe Illustrator 25.2.0, SVG Export Plug-In . SVG Version: 6.00 Build 0)  -->
<svg version="1.1" id="Layer_1" xmlns="http://www.w3.org/2000/svg" xmlns:xlink="http://www.w3.org/1999/xlink" x="0px" y="0px"
	 viewBox="0 0 216 216" style="enable-background:new 0 0 216 216;" xml:space="preserve">
<style type="text/css">
	.st0{fill-rule:evenodd;clip-rule:evenodd;fill:#D8B982;}
	.st1{fill:#231F20;}
	.st2{font-family:'ArialMT';}
	.st3{font-size:8.32px;}
	.st4{fill:none;stroke:#231F20;stroke-miterlimit:2.61;}
	.st5{fill:none;stroke:#231F20;stroke-width:2;stroke-linecap:round;stroke-linejoin:round;stroke-dasharray:2.4,4.8;}
	.st6{fill:none;stroke:#231F20;stroke-width:3.06;stroke-miterlimit:2.61;}
	.st7{fill:none;stroke:#231F20;stroke-width:0.57;stroke-miterlimit:2.61;}
	.st8{font-family:'Montserrat-Regular';}
	.st9{font-size:9.63px;}
	.st10{font-size:5.96px;}
	.st11{font-family:'Montserrat-SemiBold';}
	.st12{font-size:13.56px;}
</style>
<g id="Layer_2_1_">
	<g id="Layer_1-2">
		<g id="SPICED_HONEY">
			<path class="st0" d="M108,0c59.6,0,108,48.4,108,108s-48.4,108-108,108S0,167.6,0,108S48.4,0,108,0"/>
			<text transform="matrix(1 0 0 1 168.12 35.15)" class="st1 st2 st3">®</text>
			<path class="st4" d="M112.8,27.5l-0.2,2.6 M117.4,28l-0.3,2.6 M122.1,28.7l-0.4,2.5 M126.7,29.7l-0.6,2.5 M131.2,30.9l-0.8,2.5
				 M135.7,32.4l-0.9,2.4 M140,34.1l-1,2.4 M144.3,36.1l-1.2,2.3 M148.4,38.4l-1.3,2.2 M152.4,40.9L151,43 M156.3,43.5l-1.6,2.1
				 M159.9,46.5l-1.7,2 M163.4,49.6l-1.8,1.9 M166.7,53l-1.9,1.8 M169.9,56.3l-2,1.7 M172.8,60l-2.1,1.5 M175.4,64l-2.2,1.4
				 M177.9,68l-2.2,1.3 M180.1,72.2l-2.3,1.2 M182.1,76.4l-2.4,1 M183.8,80.8l-2.4,0.9 M185.3,85.3l-2.5,0.7 M186.5,89.8l-2.5,0.6
				 M187.4,94.4l-2.6,0.4 M188.1,99l-2.6,0.3 M188.5,103.7l-2.6,0.1 M188.6,108.4H186 M188.4,113.1l-2.6-0.1 M187.9,117.8l-2.6-0.3
				 M187.2,122.5l-2.5-0.5 M186.3,127.1l-2.5-0.6 M185,131.6l-2.5-0.8 M183.5,136.1l-2.4-0.9 M181.8,140.5l-2.4-1 M179.8,144.7
				l-2.3-1.2 M177.5,148.9l-2.2-1.3 M175,152.9l-2.1-1.4 M172.3,156.7l-2.1-1.7 M169.5,160.1l-2-1.7 M166,163.8l-1.9-1.8
				 M162.7,167.1l-1.8-1.9 M159.1,170.2l-1.6-2 M155.4,173.1l-1.6-2.1 M151.5,175.7l-1.4-2.2 M147.5,178.2l-1.3-2.2 M143.3,180.4
				l-1.2-2.4 M139,182.3l-1-2.3 M134.6,184l-0.9-2.4 M130.2,185.4l-0.7-2.5 M125.6,186.6l-0.6-2.5 M121.5,187.5l-0.4-2.6
				 M116.8,188.1l-0.3-2.6 M112.1,188.5l-0.1-2.6 M107.4,188.6V186 M102.7,188.4l0.2-2.6 M98,188l0.3-2.6 M93.3,187.3l0.5-2.6
				 M88.7,186.3l0.6-2.5 M84.3,185l0.8-2.5 M79.8,183.5l0.9-2.4 M75.5,181.7l1.1-2.4 M71.2,179.7l1.2-2.3 M67.1,177.4l1.3-2.2
				 M63.1,174.9l1.4-2.1 M59.3,172.1l1.6-2.1 M55.6,169.2l1.7-2 M52.2,166l1.8-1.9 M48.5,162.4l1.9-1.8 M45.4,158.9l2-1.6
				 M42.9,155.4l2.1-1.5 M40.2,151.5l2.2-1.4 M37.8,147.5l2.3-1.3 M35.6,143.3l2.4-1.1 M33.7,139.1l2.4-1 M32,134.7l2.4-0.9
				 M30.3,130l2.5-0.7 M29.4,125.7l2.5-0.6 M28.5,121.1l2.5-0.4 M27.9,116.4l2.6-0.3 M27.5,111.8l2.6-0.1 M27.5,107H30 M27.6,102.3
				l2.6,0.2 M28.1,97.6l2.6,0.3 M28.9,92.9l2.5,0.5 M29.9,88.3l2.5,0.6 M31.1,83.8l2.5,0.8 M32.7,79.4l2.4,0.9 M34.5,75l2.4,1
				 M36.4,70.6l2.3,1.4 M38.8,66.8l2.2,1.3 M41.3,62.8l2.1,1.4 M44.1,59l2,1.6 M47,55.3l2,1.7 M50.2,51.8l1.9,1.8 M53.6,48.6
				l1.8,1.9 M57.2,45.5l1.6,2 M60.9,42.6l1.5,2.1 M64.8,40l1.4,2.2 M68.8,37.6l1.2,2.3 M73,35.4l1.1,2.3 M77.3,33.5l1,2.4
				 M81.7,31.8l0.8,2.4 M86.2,30.4l0.7,2.5 M90.8,29.3l0.6,2.5 M95.4,28.4l0.4,2.5 M100,27.8l0.3,2.6 M104.7,27.5l0.1,2.6
				 M108.1,27.4V30"/>
			<circle class="st5" cx="108" cy="108" r="84.7"/>
			<circle class="st6" cx="108" cy="108" r="90.6"/>
			<circle class="st7" cx="108" cy="108" r="74.5"/>
			<text transform="matrix(1 0 0 1 98.37 71.72)" class="st1 st8 st9">THE</text>
			<text transform="matrix(1 0 0 1 67.02 81.94)" class="st1 st8 st9">C</text>
			<text transform="matrix(1 0 0 1 73.8 81.94)" class="st1 st8 st9">ONSERV</text>
			<text transform="matrix(1 0 0 1 115.42 81.94)" class="st1 st8 st9">A</text>
			<text transform="matrix(1 0 0 1 121.99 81.94)" class="st1 st8 st9">T</text>
			<text transform="matrix(1 0 0 1 127.42 81.94)" class="st1 st8 st9">OR</text>
			<text transform="matrix(1 0 0 1 142.37 81.94)" class="st1 st8 st9">Y</text>
			<text transform="matrix(1 0 0 1 86.78 93.12)" class="st1 st8 st10">A</text>
			<text transform="matrix(1 0 0 1 90.84 93.12)" class="st1 st8 st10">T IRO LA</text>
			<text transform="matrix(1 0 0 1 116.22 93.12)" class="st1 st8 st10">GOS</text>
			<text transform="matrix(1 0 0 1 81.71 132.32)" class="st1 st11 st12">SP</text>
			<text transform="matrix(1 0 0 1 99.95 132.32)" class="st1 st11 st12">ICED</text>
			<text transform="matrix(1 0 0 1 81.64 145.31)" class="st1 st11 st12">HONE</text>
			<text transform="matrix(1 0 0 1 124 145.31)" class="st1 st11 st12">Y</text>
		</g>
	</g>
</g>
</svg>
